packages/icons/general/NextIdPersonaVerified.svg

<svg width="16" height="16" viewBox="0 0 16 16" xmlns="http://www.w3.org/2000/svg">
<g>
        <path
            d="M7.18617 1.49397C7.61225 0.991107 8.38783 0.991107 8.81391 1.49397L9.32729 2.09995C9.58857 2.40831 10.0016 2.54254 10.3943 2.44663L11.1658 2.25816C11.8061 2.10176 12.4335 2.55764 12.4827 3.21488L12.5418 4.00691C12.5719 4.40994 12.8272 4.76135 13.2012 4.91453L13.9362 5.21556C14.5461 5.46534 14.7858 6.20299 14.4392 6.76358L14.0215 7.4391C13.809 7.78288 13.809 8.21723 14.0215 8.56102L14.4392 9.23654C14.7858 9.79712 14.5461 10.5348 13.9362 10.7845L13.2012 11.0856C12.8272 11.2388 12.5719 11.5902 12.5418 11.9932L12.4827 12.7852C12.4335 13.4425 11.8061 13.8983 11.1658 13.742L10.3943 13.5535C10.0016 13.4576 9.58857 13.5918 9.32729 13.9002L8.81391 14.5061C8.38783 15.009 7.61225 15.009 7.18617 14.5061L6.67279 13.9002C6.41151 13.5918 5.99844 13.4576 5.6058 13.5535L4.83427 13.742C4.19402 13.8983 3.56655 13.4425 3.51744 12.7852L3.45828 11.9932C3.42816 11.5902 3.17286 11.2388 2.79885 11.0856L2.06388 10.7845C1.45397 10.5348 1.2143 9.79712 1.56089 9.23654L1.97856 8.56102C2.1911 8.21723 2.1911 7.78288 1.97856 7.4391L1.56089 6.76358C1.2143 6.20299 1.45397 5.46534 2.06388 5.21556L2.79885 4.91453C3.17286 4.76135 3.42816 4.40994 3.45828 4.00691L3.51744 3.21488C3.56655 2.55764 4.19402 2.10176 4.83427 2.25816L5.6058 2.44663C5.99844 2.54254 6.41151 2.40831 6.67279 2.09995L7.18617 1.49397Z"
            fill="#1C68F3"
        />
        <path
            d="M7.19992 9.40003L5.79992 8.00003L5.33325 8.4667L7.19992 10.3334L11.1999 6.33337L10.7333 5.8667L7.19992 9.40003Z"
            fill="white"
            stroke="white"
            stroke-width="0.4"
        />
    </g>
</svg>

<svg xmlns="http://www.w3.org/2000/svg" width="16" height="16">
    <path fill="#1C68F3" d="M7.186 1.494a1.067 1.067 0 0 1 1.628 0l.513.606c.262.308.675.443 1.067.347l.772-.189c.64-.156 1.268.3 1.317.957l.059.792c.03.403.285.754.66.908l.734.3c.61.25.85.988.503 1.549l-.418.675a1.067 1.067 0 0 0 0 1.122l.418.676c.347.56.107 1.298-.503 1.547l-.735.302c-.374.153-.63.504-.66.907l-.058.792a1.067 1.067 0 0 1-1.317.957l-.772-.189a1.067 1.067 0 0 0-1.067.347l-.513.606a1.067 1.067 0 0 1-1.628 0l-.513-.606a1.067 1.067 0 0 0-1.067-.347l-.772.189c-.64.156-1.267-.3-1.317-.957l-.059-.792a1.067 1.067 0 0 0-.66-.907l-.734-.302c-.61-.25-.85-.987-.503-1.547l.418-.676a1.067 1.067 0 0 0 0-1.122l-.418-.675a1.067 1.067 0 0 1 .503-1.548l.735-.301c.374-.154.63-.505.66-.908l.058-.792a1.067 1.067 0 0 1 1.317-.957l.772.189c.392.096.806-.039 1.067-.347l.513-.606Z"/>
    <path fill="#fff" stroke="#fff" stroke-width=".4" d="M7.2 9.4 5.8 8l-.467.467L7.2 10.333l4-4-.467-.466L7.2 9.4Z"/>
</svg>
